austria/municipalities/41235.svg

<?xml version="1.0" encoding="UTF-8"?>
<!DOCTYPE svg PUBLIC "-//W3C//DTD SVG 1.1//EN" "http://www.w3.org/Graphics/SVG/1.1/DTD/svg11.dtd">
<svg xmlns="http://www.w3.org/2000/svg" version="1.1" width="166px" height="207px" style="shape-rendering:geometricPrecision; text-rendering:geometricPrecision; image-rendering:optimizeQuality; fill-rule:evenodd; clip-rule:evenodd" xmlns:xlink="http://www.w3.org/1999/xlink">
<g><path style="opacity:1" fill="#030202" d="M -0.5,-0.5 C 54.8333,-0.5 110.167,-0.5 165.5,-0.5C 165.5,43.5 165.5,87.5 165.5,131.5C 158.067,171.269 134.733,196.269 95.5,206.5C 86.8333,206.5 78.1667,206.5 69.5,206.5C 29.8711,196.203 6.53772,170.87 -0.5,130.5C -0.5,86.8333 -0.5,43.1667 -0.5,-0.5 Z"/></g>
<g><path style="opacity:1" fill="#fe9902" d="M 71.5,38.5 C 71.38,39.5862 70.7133,40.2528 69.5,40.5C 67.5269,39.6689 65.5269,39.5022 63.5,40C 66.2442,40.8035 68.9109,41.8035 71.5,43C 67.9196,43.9261 64.5863,44.4261 61.5,44.5C 64.7848,45.3236 68.1182,45.8236 71.5,46C 69.5,46.8333 67.5,47.6667 65.5,48.5C 67.4523,49.1033 69.4523,48.77 71.5,47.5C 76.4402,49.4589 81.1068,51.9589 85.5,55C 78.6657,55.0065 71.999,55.8399 65.5,57.5C 64.8333,57.5 64.1667,57.5 63.5,57.5C 63.313,55.4357 62.813,53.4357 62,51.5C 56.224,45.0568 51.224,38.0568 47,30.5C 47.0797,24.2076 45.9131,18.2076 43.5,12.5C 41.9665,11.2638 40.2998,10.7638 38.5,11C 39.3567,11.6891 40.0233,12.5224 40.5,13.5C 39.8108,15.444 39.3108,17.444 39,19.5C 37.5042,14.503 34.3375,12.8364 29.5,14.5C 28.2062,18.061 29.0396,18.3943 32,15.5C 33.7454,17.8416 33.5787,20.1749 31.5,22.5C 29.694,21.1413 28.194,21.4746 27,23.5C 26.005,26.1262 25.6717,28.7929 26,31.5C 26.8333,30.5 27.6667,29.5 28.5,28.5C 30.8362,30.454 33.3362,30.7873 36,29.5C 36.5,29.8333 37,30.1667 37.5,30.5C 33.9794,31.15 32.9794,32.9834 34.5,36C 33.6919,36.3076 33.0253,36.8076 32.5,37.5C 38.4404,41.2378 41.6071,39.5711 42,32.5C 44.9269,42.7261 47.4269,53.0594 49.5,63.5C 52.2627,64.4551 51.2627,64.6218 46.5,64C 42.5,61.3333 38.5,58.6667 34.5,56C 32.0481,55.7105 29.7148,55.0438 27.5,54C 27.8333,53.6667 28.1667,53.3333 28.5,53C 26.5704,50.7417 25.0704,48.2417 24,45.5C 20.8661,41.8491 17.3661,41.5158 13.5,44.5C 14.7161,45.0959 16.0494,45.2626 17.5,45C 20.6357,49.6846 19.8024,50.518 15,47.5C 13.0126,48.218 11.1792,49.218 9.5,50.5C 11.162,51.3267 12.4954,52.4933 13.5,54C 15.5,54.3333 17.5,54.6667 19.5,55C 15.2773,54.9716 11.6107,56.3049 8.5,59C 9.08971,60.5095 9.75638,62.0095 10.5,63.5C 10.9976,62.3966 11.3309,61.3966 11.5,60.5C 13.1727,62.0863 15.1727,62.7529 17.5,62.5C 16.119,65.7647 16.619,68.7647 19,71.5C 19.9356,69.2915 21.6023,67.9582 24,67.5C 24.1168,64.3713 25.6168,63.2046 28.5,64C 30.8333,67 33.5,69.6667 36.5,72C 46.4526,76.3079 55.7859,81.6412 64.5,88C 63.4652,89.5069 63.6319,91.0069 65,92.5C 68.4487,95.9056 71.282,99.7389 73.5,104C 73.3333,104.5 73.1667,105 73,105.5C 65.3715,100.605 58.7048,101.605 53,108.5C 51.2571,114.742 51.0905,121.075 52.5,127.5C 51.7172,132.763 48.7172,134.596 43.5,133C 37.7411,128.454 31.4077,124.954 24.5,122.5C 19.5918,122.591 15.2585,124.091 11.5,127C 10.2404,128.814 10.2404,130.647 11.5,132.5C 12.8544,130.816 14.5211,130.316 16.5,131C 15.5838,131.374 14.7504,131.874 14,132.5C 13.7489,134.433 13.2489,136.266 12.5,138C 13.0465,138.925 13.7132,139.758 14.5,140.5C 15.6956,140.154 15.6956,139.654 14.5,139C 15.7659,138.691 16.9326,138.191 18,137.5C 18.1397,140.043 18.8063,142.377 20,144.5C 20.2492,143.376 20.7492,142.376 21.5,141.5C 23.5311,142.539 24.8645,144.205 25.5,146.5C 26.0045,143.658 27.6711,142.325 30.5,142.5C 30.5,141.167 30.5,139.833 30.5,138.5C 32.5273,138.338 34.5273,138.505 36.5,139C 40.8731,142.186 45.5398,144.853 50.5,147C 51.7433,148.154 52.7433,149.488 53.5,151C 58.6823,152.803 64.0157,153.636 69.5,153.5C 69.3227,149.766 69.6561,146.099 70.5,142.5C 71.1667,142.5 71.5,142.167 71.5,141.5C 77.7837,145.277 83.9504,149.277 90,153.5C 90.9359,160.298 90.4359,166.964 88.5,173.5C 84.3865,177.922 79.7198,178.589 74.5,175.5C 72.9446,175.722 71.6113,176.389 70.5,177.5C 67.1503,175.726 65.4836,176.726 65.5,180.5C 78.7677,180.51 78.7677,181.177 65.5,182.5C 63.0886,184.319 62.922,186.319 65,188.5C 65.4828,187.552 65.6495,186.552 65.5,185.5C 67.46,186.138 69.2933,186.138 71,185.5C 70.4588,188.733 71.2921,191.733 73.5,194.5C 73.8333,193.167 74.1667,191.833 74.5,190.5C 76.1792,189.218 78.0126,188.218 80,187.5C 80.9989,191.359 83.1656,193.359 86.5,193.5C 86.1667,192.833 85.8333,192.167 85.5,191.5C 88.4947,189.857 89.1614,187.523 87.5,184.5C 91.5041,182.463 95.3375,180.13 99,177.5C 100.18,169.142 103.514,161.809 109,155.5C 110.452,149.059 107.952,145.392 101.5,144.5C 100.528,136.972 102.528,135.472 107.5,140C 110.489,140.33 113.322,141.164 116,142.5C 117.285,142.05 118.452,141.383 119.5,140.5C 120.548,141.383 121.715,142.05 123,142.5C 125.111,141.528 127.278,140.695 129.5,140C 128.396,138.869 128.729,138.035 130.5,137.5C 131.768,138.428 133.101,138.595 134.5,138C 133.346,137.086 133.513,136.253 135,135.5C 138.733,137.084 141.899,136.25 144.5,133C 142.038,131.784 139.371,131.118 136.5,131C 139.861,130.946 142.861,129.946 145.5,128C 144.5,127.667 143.5,127.333 142.5,127C 144.112,126.28 145.612,126.446 147,127.5C 149.096,126.285 148.929,125.451 146.5,125C 148.145,123.2 149.478,121.2 150.5,119C 149.167,118 147.833,117 146.5,116C 149.265,114.903 150.931,112.903 151.5,110C 150.833,109.667 150.167,109.333 149.5,109C 152.167,107.667 152.167,106.333 149.5,105C 151.658,103.688 151.991,102.022 150.5,100C 151.328,99.0853 152.328,98.4186 153.5,98C 152.5,96.3333 151.5,94.6667 150.5,93C 151.764,91.1394 152.764,89.1394 153.5,87C 153.108,85.9895 152.441,85.4895 151.5,85.5C 152.09,84.2011 153.09,83.3678 154.5,83C 153.922,81.583 152.922,80.7496 151.5,80.5C 152.303,79.5768 152.47,78.5768 152,77.5C 151.282,78.4506 150.449,78.6172 149.5,78C 151.53,76.1038 153.197,73.9371 154.5,71.5C 153.833,70.5 153.167,69.5 152.5,68.5C 154.623,64.5991 156.623,60.5991 158.5,56.5C 157.289,55.2798 157.289,54.1131 158.5,53C 156.487,51.2087 156.487,49.8753 158.5,49C 154.475,47.4281 154.642,46.2614 159,45.5C 159.801,42.633 159.634,39.9664 158.5,37.5C 159.954,35.7367 159.62,34.4033 157.5,33.5C 158.815,32.1054 158.481,31.1054 156.5,30.5C 156.369,29.7611 156.536,29.0944 157,28.5C 159.033,29.0164 159.033,28.3497 157,26.5C 152.184,30.5139 151.684,30.1805 155.5,25.5C 153.414,23.9975 151.248,22.6642 149,21.5C 148.722,22.4158 148.222,23.0825 147.5,23.5C 145.964,20.9078 143.631,19.9078 140.5,20.5C 140.657,21.8734 140.49,23.2068 140,24.5C 138.716,23.4281 138.383,22.0948 139,20.5C 136.911,20.5978 134.745,21.2645 132.5,22.5C 132.5,23.8333 132.5,25.1667 132.5,26.5C 131.778,26.0825 131.278,25.4158 131,24.5C 129.311,26.3196 129.145,28.3196 130.5,30.5C 129.788,31.7387 128.788,32.2387 127.5,32C 128.554,30.6124 128.72,29.1124 128,27.5C 126.374,30.1277 124.374,32.461 122,34.5C 121.506,36.1341 121.34,37.8008 121.5,39.5C 120.5,39.5 119.5,39.5 118.5,39.5C 117.136,45.7582 115.469,51.9249 113.5,58C 115.879,60.0254 116.713,62.5254 116,65.5C 115.077,64.2412 114.243,62.9079 113.5,61.5C 110.297,63.7828 109.964,66.2828 112.5,69C 111.692,69.3076 111.025,69.8076 110.5,70.5C 111.193,71.5178 111.859,72.5178 112.5,73.5C 111.078,73.7496 110.078,74.583 109.5,76C 111.893,78.0282 113.726,80.1949 115,82.5C 113.045,81.5467 111.378,80.2134 110,78.5C 110.167,80.3333 110.333,82.1667 110.5,84C 109.484,84.5194 108.818,85.3527 108.5,86.5C 109.833,88.1667 109.833,89.8333 108.5,91.5C 108.529,93.0293 109.196,94.196 110.5,95C 109.317,97.1551 109.65,99.1551 111.5,101C 110.978,101.561 110.645,102.228 110.5,103C 111.414,104.406 112.08,105.906 112.5,107.5C 111.35,106.15 110.683,106.316 110.5,108C 110.85,111.335 111.517,114.835 112.5,118.5C 111.671,125.698 108.504,127.031 103,122.5C 102.833,121.333 102.667,120.167 102.5,119C 103.967,111.604 105.634,104.271 107.5,97C 106,89.5289 105.166,82.0289 105,74.5C 107.951,67.6005 110.617,60.6005 113,53.5C 114.032,46.9894 113.532,40.656 111.5,34.5C 114.35,32.5129 116.35,30.3463 117.5,28C 116.833,27.6667 116.167,27.3333 115.5,27C 116.5,26.1667 117.5,25.3333 118.5,24.5C 117.833,24.1667 117.167,23.8333 116.5,23.5C 118.03,21.7738 119.03,19.7738 119.5,17.5C 119.364,13.5857 118.531,9.58574 117,5.5C 116.208,8.10639 114.708,10.1064 112.5,11.5C 112.5,11.1667 112.5,10.8333 112.5,10.5C 111.27,10.0255 110.27,8.69219 109.5,6.5C 109.977,5.52242 110.643,4.68909 111.5,4C 128.163,3.50007 144.83,3.3334 161.5,3.5C 161.667,47.5013 161.5,91.5013 161,135.5C 153.006,170.826 131.506,192.993 96.5,202C 55.6122,206.141 26.4455,189.641 9,152.5C 6.44468,146.057 4.77802,139.39 4,132.5C 3.50001,89.5013 3.33334,46.5013 3.5,3.5C 38.8349,3.33335 74.1682,3.50001 109.5,4C 106.727,6.38341 104.561,9.21675 103,12.5C 100.667,14.1667 98.3333,15.8333 96,17.5C 94.4412,19.2166 93.6079,21.2166 93.5,23.5C 94.8734,23.3433 96.2068,23.51 97.5,24C 95.5,24.3333 93.5,24.6667 91.5,25C 88.6399,27.5541 85.3065,29.2207 81.5,30C 79.1961,33.9936 75.8627,36.8269 71.5,38.5 Z"/></g>
<g><path style="opacity:1" fill="#fefffe" d="M 112.5,10.5 C 112.5,10.8333 112.5,11.1667 112.5,11.5C 111.86,13.332 110.86,13.6653 109.5,12.5C 110.357,11.5748 111.357,10.9081 112.5,10.5 Z"/></g>
<g><path style="opacity:1" fill="#fe9900" d="M 114.5,11.5 C 117.001,11.5109 117.168,12.1776 115,13.5C 114.536,12.9056 114.369,12.2389 114.5,11.5 Z"/></g>
<g><path style="opacity:1" fill="#fe9900" d="M 147.5,23.5 C 146.87,25.9352 145.537,26.6018 143.5,25.5C 144.577,24.2949 145.91,23.6282 147.5,23.5 Z"/></g>
<g><path style="opacity:1" fill="#fefffe" d="M 105.5,24.5 C 106.097,24.7352 106.43,25.2352 106.5,26C 105.344,28.1554 103.844,29.9888 102,31.5C 101.833,31 101.667,30.5 101.5,30C 102.967,28.2184 104.301,26.3851 105.5,24.5 Z"/></g>
<g><path style="opacity:1" fill="#000000" d="M 132.5,26.5 C 132.771,28.3797 132.104,29.713 130.5,30.5C 129.145,28.3196 129.311,26.3196 131,24.5C 131.278,25.4158 131.778,26.0825 132.5,26.5 Z"/></g>
<g><path style="opacity:1" fill="#fe9900" d="M 149.5,25.5 C 150.077,24.2267 150.743,24.2267 151.5,25.5C 151.03,26.463 150.363,26.463 149.5,25.5 Z"/></g>
<g><path style="opacity:1" fill="#fefffe" d="M 98.5,25.5 C 99.7965,26.8488 99.6298,28.1821 98,29.5C 97.4209,28.0715 97.5876,26.7382 98.5,25.5 Z"/></g>
<g><path style="opacity:1" fill="#fe9900" d="M 130.5,30.5 C 132.104,29.713 132.771,28.3797 132.5,26.5C 134.353,25.3857 134.853,26.0524 134,28.5C 133.433,30.9833 132.267,31.65 130.5,30.5 Z"/></g>
<g><path style="opacity:1" fill="#fe9900" d="M 147.5,26.5 C 149.975,26.7467 149.975,27.4134 147.5,28.5C 146.537,28.0302 146.537,27.3635 147.5,26.5 Z"/></g>
<g><path style="opacity:1" fill="#fe9900" d="M 156.5,30.5 C 155.998,32.0847 154.998,32.5847 153.5,32C 154.244,30.9614 155.244,30.4614 156.5,30.5 Z"/></g>
<g><path style="opacity:1" fill="#fefffe" d="M 86.5,33.5 C 89.1926,34.0198 91.1926,35.5198 92.5,38C 89.5,41.3333 86.5,41.3333 83.5,38C 84.8825,36.7292 85.8825,35.2292 86.5,33.5 Z"/></g>
<g><path style="opacity:1" fill="#fe9900" d="M 157.5,33.5 C 157.396,35.9728 156.396,36.6394 154.5,35.5C 155.357,34.5748 156.357,33.9081 157.5,33.5 Z"/></g>
<g><path style="opacity:1" fill="#000000" d="M 87.5,35.5 C 89.8519,36.5426 90.0185,37.8759 88,39.5C 86.2317,38.3181 86.0651,36.9848 87.5,35.5 Z"/></g>
<g><path style="opacity:1" fill="#000000" d="M 71.5,38.5 C 69.8967,38.6882 68.5634,38.1882 67.5,37C 69.1398,36.6522 70.4732,37.1522 71.5,38.5 Z"/></g>
<g><path style="opacity:1" fill="#fe9900" d="M 158.5,37.5 C 157.998,39.0847 156.998,39.5847 155.5,39C 156.244,37.9614 157.244,37.4614 158.5,37.5 Z"/></g>
<g><path style="opacity:1" fill="#fe9900" d="M 153.5,49.5 C 156.001,49.5109 156.168,50.1776 154,51.5C 153.536,50.9056 153.369,50.2389 153.5,49.5 Z"/></g>
<g><path style="opacity:1" fill="#fe9900" d="M 116.5,55.5 C 118.085,56.0024 118.585,57.0024 118,58.5C 116.961,57.7562 116.461,56.7562 116.5,55.5 Z"/></g>
<g><path style="opacity:1" fill="#fefffe" d="M 63.5,57.5 C 64.1667,57.5 64.8333,57.5 65.5,57.5C 64.9423,58.7899 63.9423,59.6232 62.5,60C 64.8333,60.3333 67.1667,60.6667 69.5,61C 65.8333,61.6667 62.1667,61.6667 58.5,61C 60.3231,60.0027 61.9897,58.8361 63.5,57.5 Z"/></g>
<g><path style="opacity:1" fill="#fe9900" d="M 114.5,68.5 C 116.085,69.0024 116.585,70.0024 116,71.5C 114.961,70.7562 114.461,69.7562 114.5,68.5 Z"/></g>
<g><path style="opacity:1" fill="#fe9900" d="M 112.5,73.5 C 113.973,74.072 115.307,74.9054 116.5,76C 114.055,76.9098 112.722,76.0764 112.5,73.5 Z"/></g>
<g><path style="opacity:1" fill="#fe9900" d="M 151.5,80.5 C 151.483,82.0281 150.816,82.5281 149.5,82C 150.044,81.2828 150.711,80.7828 151.5,80.5 Z"/></g>
<g><path style="opacity:1" fill="#fefffe" d="M 70.5,86.5 C 71.0431,86.56 71.3764,86.8933 71.5,87.5C 70.635,88.5827 69.635,88.7494 68.5,88C 69.4158,87.7216 70.0825,87.2216 70.5,86.5 Z"/></g>
<g><path style="opacity:1" fill="#fe9900" d="M 112.5,107.5 C 114.337,107.639 114.67,108.306 113.5,109.5C 112.702,109.043 112.369,108.376 112.5,107.5 Z"/></g>
<g><path style="opacity:1" fill="#fefffe" d="M 73.5,111.5 C 75.0106,109.559 77.0106,109.059 79.5,110C 77.5643,110.813 75.5643,111.313 73.5,111.5 Z"/></g>
<g><path style="opacity:1" fill="#fefffe" d="M 73.5,111.5 C 71.1028,114.696 69.9362,118.362 70,122.5C 69.3333,119.833 69.3333,117.167 70,114.5C 70.4224,112.574 71.5891,111.574 73.5,111.5 Z"/></g>
<g><path style="opacity:1" fill="#fefffe" d="M 17.5,127.5 C 21.2434,127.459 21.4101,128.126 18,129.5C 17.5357,128.906 17.369,128.239 17.5,127.5 Z"/></g>
<g><path style="opacity:1" fill="#fefffe" d="M -0.5,130.5 C 6.53772,170.87 29.8711,196.203 69.5,206.5C 46.1667,206.5 22.8333,206.5 -0.5,206.5C -0.5,181.167 -0.5,155.833 -0.5,130.5 Z"/></g>
<g><path style="opacity:1" fill="#fefffe" d="M 21.5,131.5 C 22.2389,131.369 22.9056,131.536 23.5,132C 22.3333,133.167 21.1667,134.333 20,135.5C 19.7003,133.934 20.2003,132.601 21.5,131.5 Z"/></g>
<g><path style="opacity:1" fill="#fefffe" d="M 165.5,131.5 C 165.5,156.5 165.5,181.5 165.5,206.5C 142.167,206.5 118.833,206.5 95.5,206.5C 134.733,196.269 158.067,171.269 165.5,131.5 Z"/></g>
<g><path style="opacity:1" fill="#fefffe" d="M 71.5,141.5 C 71.5,142.167 71.1667,142.5 70.5,142.5C 69.2281,139.344 69.5614,139.011 71.5,141.5 Z"/></g>
</svg>

<svg xmlns="http://www.w3.org/2000/svg" width="166" height="207" style="shape-rendering:geometricPrecision;text-rendering:geometricPrecision;image-rendering:optimizeQuality;fill-rule:evenodd;clip-rule:evenodd"><path style="opacity:1" fill="#030202" d="M-.5-.5h166v132c-7.433 39.769-30.767 64.769-70 75h-26c-39.629-10.297-62.962-35.63-70-76V-.5z"/><path style="opacity:1" fill="#fe9902" d="M71.5 38.5c-.12 1.086-.787 1.753-2 2-1.973-.831-3.973-.998-6-.5a57.682 57.682 0 0 1 8 3c-3.58.926-6.914 1.426-10 1.5a52.204 52.204 0 0 0 10 1.5l-6 2.5c1.952.603 3.952.27 6-1a69.589 69.589 0 0 1 14 7.5c-6.834.007-13.501.84-20 2.5h-2a20.088 20.088 0 0 0-1.5-6 116.577 116.577 0 0 1-15-21c.08-6.292-1.087-12.292-3.5-18-1.533-1.236-3.2-1.736-5-1.5a7.253 7.253 0 0 1 2 2.5 32.412 32.412 0 0 0-1.5 6c-1.496-4.997-4.663-6.664-9.5-5-1.294 3.561-.46 3.894 2.5 1 1.745 2.342 1.579 4.675-.5 7-1.806-1.359-3.306-1.025-4.5 1-.995 2.626-1.328 5.293-1 8l2.5-3c2.336 1.954 4.836 2.287 7.5 1l1.5 1c-3.52.65-4.52 2.483-3 5.5a4.452 4.452 0 0 0-2 1.5c5.94 3.738 9.107 2.071 9.5-5a385.356 385.356 0 0 1 7.5 31c2.763.955 1.763 1.122-3 .5l-12-8a22.5 22.5 0 0 1-7-2l1-1a26.06 26.06 0 0 1-4.5-7.5c-3.134-3.65-6.634-3.984-10.5-1 1.216.596 2.55.763 4 .5 3.136 4.685 2.302 5.518-2.5 2.5a20.477 20.477 0 0 0-5.5 3c1.662.827 2.995 1.993 4 3.5l6 1c-4.223-.028-7.89 1.305-11 4a54.51 54.51 0 0 0 2 4.5c.498-1.103.83-2.103 1-3 1.673 1.586 3.673 2.253 6 2-1.381 3.265-.881 6.265 1.5 9 .936-2.209 2.602-3.542 5-4 .117-3.129 1.617-4.295 4.5-3.5 2.333 3 5 5.667 8 8a145.186 145.186 0 0 1 28 16c-1.035 1.507-.868 3.007.5 4.5a45.78 45.78 0 0 1 8.5 11.5l-.5 1.5c-7.629-4.895-14.295-3.895-20 3-1.743 6.242-1.91 12.575-.5 19-.783 5.263-3.783 7.096-9 5.5a66.265 66.265 0 0 0-19-10.5c-4.908.091-9.242 1.591-13 4.5-1.26 1.814-1.26 3.647 0 5.5 1.354-1.684 3.021-2.184 5-1.5a9.457 9.457 0 0 0-2.5 1.5 20.438 20.438 0 0 1-1.5 5.5 11.371 11.371 0 0 0 2 2.5c1.196-.346 1.196-.846 0-1.5a11.339 11.339 0 0 0 3.5-1.5c.14 2.543.806 4.877 2 7a6.807 6.807 0 0 1 1.5-3c2.031 1.039 3.364 2.705 4 5 .505-2.842 2.171-4.175 5-4v-4a18.452 18.452 0 0 1 6 .5 72.846 72.846 0 0 0 14 8 13.908 13.908 0 0 1 3 4 44.914 44.914 0 0 0 16 2.5 39.704 39.704 0 0 1 1-11c.667 0 1-.333 1-1a323.244 323.244 0 0 1 18.5 12c.936 6.798.436 13.464-1.5 20-4.114 4.422-8.78 5.089-14 2a6.895 6.895 0 0 0-4 2c-3.35-1.774-5.016-.774-5 3 13.268.01 13.268.677 0 2-2.411 1.819-2.578 3.819-.5 6 .483-.948.65-1.948.5-3 1.96.638 3.793.638 5.5 0-.541 3.233.292 6.233 2.5 9l1-4a20.477 20.477 0 0 1 5.5-3c.999 3.859 3.166 5.859 6.5 6l-1-2c2.995-1.643 3.661-3.977 2-7a88.437 88.437 0 0 0 11.5-7c1.18-8.358 4.514-15.691 10-22 1.452-6.441-1.048-10.108-7.5-11-.972-7.528 1.028-9.028 6-4.5a25.05 25.05 0 0 1 8.5 2.5 11.068 11.068 0 0 0 3.5-2 11.068 11.068 0 0 0 3.5 2 54.237 54.237 0 0 1 6.5-2.5c-1.104-1.131-.771-1.965 1-2.5 1.268.928 2.601 1.095 4 .5-1.154-.914-.987-1.747.5-2.5 3.733 1.584 6.899.75 9.5-2.5-2.462-1.216-5.129-1.882-8-2 3.361-.054 6.361-1.054 9-3l-3-1c1.612-.72 3.112-.554 4.5.5 2.096-1.215 1.929-2.049-.5-2.5 1.645-1.8 2.978-3.8 4-6l-4-3c2.765-1.097 4.431-3.097 5-6l-2-1c2.667-1.333 2.667-2.667 0-4 2.158-1.312 2.491-2.978 1-5a7.292 7.292 0 0 1 3-2l-3-5a25.24 25.24 0 0 0 3-6c-.392-1.01-1.059-1.51-2-1.5.59-1.299 1.59-2.132 3-2.5-.578-1.417-1.578-2.25-3-2.5.803-.923.97-1.923.5-3-.718.95-1.551 1.117-2.5.5a24.911 24.911 0 0 0 5-6.5l-2-3c2.123-3.9 4.123-7.9 6-12-1.211-1.22-1.211-2.387 0-3.5-2.013-1.791-2.013-3.125 0-4-4.025-1.572-3.858-2.739.5-3.5.801-2.867.634-5.534-.5-8 1.454-1.763 1.12-3.097-1-4 1.315-1.395.981-2.395-1-3a2.429 2.429 0 0 1 .5-2c2.033.516 2.033-.15 0-2-4.816 4.014-5.316 3.68-1.5-1a52.122 52.122 0 0 0-6.5-4c-.278.916-.778 1.582-1.5 2-1.536-2.592-3.869-3.592-7-3a8.43 8.43 0 0 1-.5 4c-1.284-1.072-1.617-2.405-1-4-2.089.098-4.255.765-6.5 2v4c-.722-.418-1.222-1.084-1.5-2-1.689 1.82-1.855 3.82-.5 6-.712 1.239-1.712 1.739-3 1.5 1.054-1.388 1.22-2.888.5-4.5a29.97 29.97 0 0 1-6 7 12.93 12.93 0 0 0-.5 5h-3a193.872 193.872 0 0 1-5 18.5c2.379 2.025 3.213 4.525 2.5 7.5a32.058 32.058 0 0 1-2.5-4c-3.203 2.283-3.536 4.783-1 7.5a4.451 4.451 0 0 0-2 1.5 184.223 184.223 0 0 1 2 3c-1.422.25-2.422 1.083-3 2.5 2.393 2.028 4.226 4.195 5.5 6.5a14.505 14.505 0 0 1-5-4l.5 5.5c-1.016.52-1.682 1.353-2 2.5 1.333 1.667 1.333 3.333 0 5 .029 1.53.696 2.696 2 3.5-1.183 2.155-.85 4.155 1 6a3.943 3.943 0 0 0-1 2 15.414 15.414 0 0 1 2 4.5c-1.15-1.35-1.817-1.184-2 .5.35 3.335 1.017 6.835 2 10.5-.829 7.198-3.996 8.531-9.5 4l-.5-3.5a407.166 407.166 0 0 1 5-22 128.48 128.48 0 0 1-2.5-22.5c2.951-6.9 5.617-13.9 8-21 1.032-6.51.532-12.844-1.5-19 2.85-1.987 4.85-4.154 6-6.5l-2-1 3-2.5-2-1a12.797 12.797 0 0 0 3-6c-.136-3.914-.969-7.914-2.5-12-.792 2.606-2.292 4.606-4.5 6v-1c-1.23-.475-2.23-1.808-3-4a7.253 7.253 0 0 1 2-2.5c16.663-.5 33.33-.667 50-.5.167 44.001 0 88.001-.5 132-7.994 35.326-29.494 57.493-64.5 66.5-40.888 4.141-70.055-12.359-87.5-49.5a77.645 77.645 0 0 1-5-20c-.5-42.999-.667-85.999-.5-129 35.335-.167 70.668 0 106 .5a25.57 25.57 0 0 0-6.5 8.5l-7 5c-1.559 1.717-2.392 3.717-2.5 6a8.434 8.434 0 0 1 4 .5l-6 1c-2.86 2.554-6.194 4.22-10 5-2.304 3.994-5.637 6.827-10 8.5z"/><path style="opacity:1" fill="#fefffe" d="M112.5 10.5v1c-.64 1.832-1.64 2.165-3 1a7.468 7.468 0 0 1 3-2z"/><path style="opacity:1" fill="#fe9900" d="M114.5 11.5c2.501.01 2.668.678.5 2a2.429 2.429 0 0 1-.5-2zM147.5 23.5c-.63 2.435-1.963 3.102-4 2 1.077-1.205 2.41-1.872 4-2z"/><path style="opacity:1" fill="#fefffe" d="M105.5 24.5c.597.235.93.735 1 1.5a18.075 18.075 0 0 1-4.5 5.5l-.5-1.5a55.58 55.58 0 0 0 4-5.5z"/><path style="opacity:1" d="M132.5 26.5c.271 1.88-.396 3.213-2 4-1.355-2.18-1.189-4.18.5-6 .278.916.778 1.582 1.5 2z"/><path style="opacity:1" fill="#fe9900" d="M149.5 25.5c.577-1.273 1.243-1.273 2 0-.47.963-1.137.963-2 0z"/><path style="opacity:1" fill="#fefffe" d="M98.5 25.5c1.296 1.349 1.13 2.682-.5 4-.58-1.428-.412-2.762.5-4z"/><path style="opacity:1" fill="#fe9900" d="M130.5 30.5c1.604-.787 2.271-2.12 2-4 1.853-1.114 2.353-.448 1.5 2-.567 2.483-1.733 3.15-3.5 2zM147.5 26.5c2.475.247 2.475.913 0 2-.963-.47-.963-1.137 0-2zM156.5 30.5c-.502 1.585-1.502 2.085-3 1.5.744-1.039 1.744-1.539 3-1.5z"/><path style="opacity:1" fill="#fefffe" d="M86.5 33.5c2.693.52 4.693 2.02 6 4.5-3 3.333-6 3.333-9 0a11.112 11.112 0 0 0 3-4.5z"/><path style="opacity:1" fill="#fe9900" d="M157.5 33.5c-.104 2.473-1.104 3.14-3 2a7.468 7.468 0 0 1 3-2z"/><path style="opacity:1" d="M87.5 35.5c2.352 1.043 2.519 2.376.5 4-1.768-1.182-1.935-2.515-.5-4zM71.5 38.5c-1.603.188-2.937-.312-4-1.5 1.64-.348 2.973.152 4 1.5z"/><path style="opacity:1" fill="#fe9900" d="M158.5 37.5c-.502 1.585-1.502 2.085-3 1.5.744-1.039 1.744-1.539 3-1.5zM153.5 49.5c2.501.01 2.668.678.5 2a2.429 2.429 0 0 1-.5-2zM116.5 55.5c1.585.502 2.085 1.502 1.5 3-1.039-.744-1.539-1.744-1.5-3z"/><path style="opacity:1" fill="#fefffe" d="M63.5 57.5h2c-.558 1.29-1.558 2.123-3 2.5l7 1a30.499 30.499 0 0 1-11 0 27.258 27.258 0 0 0 5-3.5z"/><path style="opacity:1" fill="#fe9900" d="M114.5 68.5c1.585.502 2.085 1.502 1.5 3-1.039-.744-1.539-1.744-1.5-3zM112.5 73.5a12.648 12.648 0 0 1 4 2.5c-2.445.91-3.778.076-4-2.5zM151.5 80.5c-.017 1.528-.684 2.028-2 1.5.544-.717 1.211-1.217 2-1.5z"/><path style="opacity:1" fill="#fefffe" d="M70.5 86.5c.543.06.876.393 1 1-.865 1.083-1.865 1.25-3 .5.916-.278 1.582-.778 2-1.5z"/><path style="opacity:1" fill="#fe9900" d="M112.5 107.5c1.837.139 2.17.806 1 2-.798-.457-1.131-1.124-1-2z"/><path style="opacity:1" fill="#fefffe" d="M73.5 111.5c1.51-1.941 3.51-2.441 6-1.5a20.088 20.088 0 0 1-6 1.5zM73.5 111.5c-2.397 3.196-3.564 6.862-3.5 11a16.25 16.25 0 0 1 0-8c.422-1.926 1.59-2.926 3.5-3zM17.5 127.5c3.743-.041 3.91.626.5 2a2.427 2.427 0 0 1-.5-2zM-.5 130.5c7.038 40.37 30.371 65.703 70 76h-70v-76zM21.5 131.5a2.429 2.429 0 0 1 2 .5l-3.5 3.5c-.3-1.566.2-2.899 1.5-4zM165.5 131.5v75h-70c39.233-10.231 62.567-35.231 70-75zM71.5 141.5c0 .667-.333 1-1 1-1.272-3.156-.939-3.489 1-1z"/></svg>
